assets/icons/qvision/hdr_enhanced_select.svg

<svg width="24" height="24" viewBox="0 0 24 24" fill="none" xmlns="http://www.w3.org/2000/svg">
<g clip-path="url(#clip0_147_3499)">
<path d="M12 2C15.31 2 18 4.69 18 8C18 11.31 15.31 14 12 14C8.69 14 6 11.31 6 8C6 4.69 8.69 2 12 2ZM12 4C9.79 4 8 5.79 8 8C8 10.21 9.79 12 12 12C14.21 12 16 10.21 16 8C16 5.79 14.21 4 12 4ZM13 11H11V9H9V7H11V5H13V7H15V9H13V11ZM24 20H22V22H20.5V20H18.5V18.5H20.5V16.5H22V18.5H24V20ZM18 18.5C18 19.1 17.6 19.6 17.1 19.9L18 22H16.5L15.6 20H14.5V22H13V16H16.5C17.3 16 18 16.7 18 17.5V18.5ZM16.5 18.5V17.5H14.5V18.5H16.5ZM3.5 18V16H5V22H3.5V19.5H1.5V22H0V16H1.5V18H3.5ZM10 16C10.8 16 11.5 16.7 11.5 17.5V20.5C11.5 21.3 10.8 22 10 22H6.5V16H10ZM10 20.5V17.5H8V20.5H10Z" fill="#323232"/>
</g>
<defs>
<clipPath id="clip0_147_3499">
<rect width="24" height="24" fill="white"/>
</clipPath>
</defs>
</svg>

<svg xmlns="http://www.w3.org/2000/svg" height="24" viewBox="0 0 24 24" width="24"><path d="M0 0h24v24H0z" fill="none"/><path d="M12 2c3.31 0 6 2.69 6 6s-2.69 6-6 6-6-2.69-6-6 2.69-6 6-6zm0 2C9.79 4 8 5.79 8 8s1.79 4 4 4 4-1.79 4-4-1.79-4-4-4zm1 7h-2V9H9V7h2V5h2v2h2v2h-2v2zm11 9h-2v2h-1.5v-2h-2v-1.5h2v-2H22v2h2V20zm-6-1.5c0 .6-.4 1.1-.9 1.4L18 22h-1.5l-.9-2h-1.1v2H13v-6h3.5c.8 0 1.5.7 1.5 1.5v1zm-1.5 0v-1h-2v1h2zm-13-.5v-2H5v6H3.5v-2.5h-2V22H0v-6h1.5v2h2zm6.5-2c.8 0 1.5.7 1.5 1.5v3c0 .8-.7 1.5-1.5 1.5H6.5v-6H10zm0 4.5v-3H8v3h2z"/></svg>
